icons/guarantees-1.svg

<svg width="86" height="86" viewBox="0 0 86 86" fill="none" xmlns="http://www.w3.org/2000/svg">
<path opacity="0.5" d="M11.7342 25.9008C14.7198 22.9117 19.0229 22.0758 26.1842 21.8421L31.4967 21.7571C32.885 21.75 34.3583 21.7476 35.9167 21.75H50.0833C51.6464 21.75 53.1197 21.7524 54.5033 21.7571L59.8158 21.8421C66.9771 22.0758 71.2802 22.9117 74.2658 25.9008C78.4167 30.0481 78.4167 36.7277 78.4167 50.0833C78.4167 63.439 78.4167 70.1185 74.2658 74.2658C70.115 78.4131 63.439 78.4167 50.0833 78.4167H35.9167C22.561 78.4167 15.8815 78.4167 11.7342 74.2658C7.58688 70.115 7.58334 63.439 7.58334 50.0833C7.58334 36.7277 7.58334 30.0481 11.7342 25.9008Z" fill="#141414"/>
<path d="M45.6562 35.9167C45.6562 35.2122 45.3764 34.5366 44.8783 34.0384C44.3801 33.5403 43.7045 33.2604 43 33.2604C42.2955 33.2604 41.6199 33.5403 41.1217 34.0384C40.6236 34.5366 40.3438 35.2122 40.3438 35.9167V35.9521C36.4869 36.9225 33.2604 39.9648 33.2604 44.1794C33.2604 49.3396 38.0948 52.7396 43 52.7396C45.9183 52.7396 47.4271 54.6273 47.4271 55.9873C47.4271 57.3473 45.9183 59.2315 43 59.2315C40.0817 59.2315 38.5729 57.3473 38.5729 55.9873C38.5729 55.2828 38.2931 54.6072 37.7949 54.109C37.2968 53.6109 36.6211 53.331 35.9167 53.331C35.2122 53.331 34.5366 53.6109 34.0384 54.109C33.5403 54.6072 33.2604 55.2828 33.2604 55.9873C33.2604 60.2019 36.4869 63.2406 40.3438 64.2146V64.25C40.3438 64.9545 40.6236 65.6301 41.1217 66.1283C41.6199 66.6264 42.2955 66.9062 43 66.9062C43.7045 66.9062 44.3801 66.6264 44.8783 66.1283C45.3764 65.6301 45.6562 64.9545 45.6562 64.25V64.2146C49.5131 63.2442 52.7396 60.2019 52.7396 55.9873C52.7396 50.8271 47.9052 47.4271 43 47.4271C40.0817 47.4271 38.5729 45.5394 38.5729 44.1794C38.5729 42.8194 40.0817 40.9352 43 40.9352C45.9183 40.9352 47.4271 42.8194 47.4271 44.1794C47.4271 44.8839 47.7069 45.5595 48.2051 46.0576C48.7032 46.5558 49.3789 46.8356 50.0833 46.8356C50.7878 46.8356 51.4634 46.5558 51.9616 46.0576C52.4597 45.5595 52.7396 44.8839 52.7396 44.1794C52.7396 39.9648 49.5131 36.9225 45.6562 35.9521V35.9167ZM43.1842 4.92708H42.8158C39.6354 4.92708 36.9792 4.92708 34.8754 5.21041C32.6513 5.50791 30.6431 6.16666 29.0317 7.77812C27.4167 9.39312 26.7579 11.4012 26.4604 13.6219C26.2585 15.1342 26.2019 18.7431 26.1842 21.8385L31.4967 21.7571C31.5144 18.7573 31.5675 15.5308 31.7269 14.3302C31.9465 12.6975 32.3254 11.9962 32.7894 11.5358C33.2533 11.0754 33.9475 10.6965 35.5838 10.4733C37.2944 10.2467 39.5858 10.2396 43 10.2396C46.4142 10.2396 48.7092 10.2467 50.4198 10.4769C52.0525 10.6965 52.7537 11.0754 53.2142 11.5394C53.6746 12.0033 54.0571 12.6975 54.2767 14.3302C54.436 15.5344 54.4892 18.7573 54.5033 21.7571L59.8158 21.8421C59.8017 18.7431 59.745 15.1342 59.5396 13.6254C59.2421 11.4012 58.5833 9.39312 56.9719 7.78166C55.3569 6.16666 53.3488 5.50791 51.1281 5.21041C49.0208 4.92708 46.3681 4.92708 43.1842 4.92708Z" fill="#141414"/>
</svg>

<svg xmlns="http://www.w3.org/2000/svg" width="86" height="86" fill="none"><path fill="#141414" d="M11.734 25.9c2.986-2.988 7.289-3.824 14.45-4.058l5.313-.085q2.082-.011 4.42-.007h14.166q2.345 0 4.42.007l5.313.085c7.161.234 11.464 1.07 14.45 4.059 4.15 4.147 4.15 10.827 4.15 24.182 0 13.356 0 20.036-4.15 24.183s-10.827 4.15-24.183 4.15H35.917c-13.356 0-20.035 0-24.183-4.15s-4.15-10.827-4.15-24.183 0-20.035 4.15-24.182" opacity=".5"/><path fill="#141414" d="M45.656 35.917a2.657 2.657 0 1 0-5.312 0v.035c-3.857.97-7.084 4.013-7.084 8.227 0 5.16 4.835 8.56 9.74 8.56 2.918 0 4.427 1.888 4.427 3.248S45.918 59.231 43 59.231s-4.427-1.884-4.427-3.244a2.656 2.656 0 1 0-5.313 0c0 4.215 3.227 7.254 7.084 8.228v.035a2.657 2.657 0 1 0 5.312 0v-.035c3.857-.97 7.084-4.013 7.084-8.228 0-5.16-4.835-8.56-9.74-8.56-2.918 0-4.427-1.888-4.427-3.248s1.509-3.244 4.427-3.244 4.427 1.884 4.427 3.244a2.656 2.656 0 1 0 5.313 0c0-4.214-3.227-7.257-7.084-8.227zm-2.472-30.99h-.368c-3.18 0-5.837 0-7.94.283-2.225.298-4.233.957-5.844 2.568-1.615 1.615-2.274 3.623-2.572 5.844-.201 1.512-.258 5.121-.276 8.217l5.313-.082c.017-3 .07-6.226.23-7.427.22-1.633.598-2.334 1.062-2.794s1.158-.84 2.795-1.063c1.71-.226 4.002-.233 7.416-.233s5.71.007 7.42.237c1.633.22 2.334.598 2.794 1.062s.843 1.159 1.063 2.791c.159 1.204.212 4.427.226 7.427l5.313.085c-.014-3.099-.071-6.708-.276-8.217-.298-2.224-.957-4.232-2.568-5.843-1.615-1.615-3.623-2.274-5.844-2.572-2.107-.283-4.76-.283-7.944-.283"/></svg>
